epam-assets/icon-sources/18/navigation-structure_alt.svg

<svg width="18" height="18" viewBox="0 0 18 18" fill="none" xmlns="http://www.w3.org/2000/svg">
<g id="18/navigation-structure_alt">
<path id="icon" fill-rule="evenodd" clip-rule="evenodd" d="M3 1.5V6H4.5V15H10.5V16.5H15V12H10.5V13.5H6V9.75L10.5 9.75V11.25H15V6.75H10.5V8.25L6 8.25V6H7.5V1.5H3ZM12 15V13.5H13.5V15H12ZM12 8.25V9.75H13.5V8.25H12Z" fill="#6C6F80"/>
</g>
</svg>

<svg xmlns="http://www.w3.org/2000/svg" width="18" height="18" fill="none" viewBox="0 0 18 18">
  <path fill="#6C6F80" fill-rule="evenodd" d="M3 1.5V6h1.5v9h6v1.5H15V12h-4.5v1.5H6V9.75h4.5v1.5H15v-4.5h-4.5v1.5H6V6h1.5V1.5H3ZM12 15v-1.5h1.5V15H12Zm0-6.75v1.5h1.5v-1.5H12Z" clip-rule="evenodd"/>
</svg>
